img/mastodon-5.svg

<svg fill="none" height="25" viewBox="0 0 24 25" width="24" xmlns="http://www.w3.org/2000/svg" xmlns:xlink="http://www.w3.org/1999/xlink"><clipPath id="a"><path d="m0 .5h24v24h-24z"/></clipPath><g clip-path="url(#a)"><path clip-rule="evenodd" d="m15.2169.5-.3553.030096c-.7704.444446-1.5704.918404-2.3704 1.362854-.2666.14815-.5631.23669-.8594.38484-.3259.14815-.6522.32616-.9485.53357-.1481.11851-.2961.20717-.4739.20717-.2074 0-.38521.0301-.59261.0301-1.12593-.02963-2.22189-.05938-3.34782-.11864-.20741-.02963-.35591.0294-.50405.20718-.53334.62222-1.0367 1.2147-1.57003 1.8073-.94816 1.06667-1.9558 2.01506-3.0521 2.90395-.237038.17778-.355442.3853-.325812.71123.088887.77037.177895 1.54055.266782 2.28125.02963.4148.11829.83.20718 1.2448.05925.2963.02963.6811 0 .9774.00025.001.00032.0012.00059.0022.14815.4741.58762 4.0161.67651 4.3421.23704.9481.47407 1.9257.74074 2.8738.05926.1778.20776.3559.35591.5041.35555.3259.77002.5923 1.12558.9479.88889.8889 2.0786 1.7594 2.84897 2.7668.05926 0 .08889.0001.14815-.0295 1.06667-.4445 2.19226-.7701 3.34781-.9775.2963-.0592.5929-.178.6522-.5335.1778-.9185.3553-1.8073.5035-2.6962-.8297-.5037-1.6889-.5336-2.51855-.5336.11852.6222-.17743 1.1259-.38484 1.6296-.05926.0889-.23738.1481-.3559.1777-.23704.0593-.50371.0297-.74075.1187-.26666.0889-.44433.0298-.62211-.2072-.38518-.5036-.77025-.978-1.2147-1.4224-.26667-.2667-.17766-.9483-.17766-1.0075 2.7504-2.7829 3.30803-2.5584 6.69621-3.3183.2667.2074.5627.385.7998.6221.5037.4444 1.4522 1.7184 1.5411 1.8073.1777.1778.3596-.2651.2411-.028 4.034-6.2074 4.9745-7.5363 8.2328-11.67577-1.0666 0-2.1629-.0294-3.2592-.05903-.1283.01376-.3717.02989-.4445.02951-.4331-.05005-1.249-.101-1.555-.63386-.2074-.29629-2.4155-4.877363-2.7118-5.26255z" fill="#000" fill-rule="evenodd"/></g></svg>

<svg width="24" height="25" viewBox="0 0 24 25" fill="none" xmlns="http://www.w3.org/2000/svg">
<g clip-path="url(#clip0_3288_2105)">
<path fill-rule="evenodd" clip-rule="evenodd" d="M15.2169 0.5L14.8616 0.530096C14.0912 0.974542 13.2912 1.4485 12.4912 1.89295C12.2246 2.0411 11.9281 2.12964 11.6318 2.27779C11.3059 2.42594 10.9796 2.60395 10.6833 2.81136C10.5352 2.92987 10.3872 3.01853 10.2094 3.01853C10.002 3.01853 9.82419 3.04863 9.61679 3.04863C8.49086 3.019 7.3949 2.98925 6.26897 2.92999C6.06156 2.90036 5.91306 2.95939 5.76492 3.13717C5.23158 3.75939 4.72822 4.35187 4.19489 4.94447C3.24673 6.01114 2.23909 6.95953 1.14279 7.84842C0.905752 8.0262 0.787348 8.23372 0.816978 8.55965C0.905865 9.33002 0.994873 10.1002 1.08376 10.8409C1.11339 11.2557 1.20205 11.6709 1.29094 12.0857C1.35019 12.382 1.32057 12.7668 1.29094 13.0631C1.29119 13.0641 1.29126 13.0643 1.29153 13.0653C1.43968 13.5394 1.87915 17.0814 1.96804 17.4074C2.20508 18.3555 2.44211 19.3331 2.70878 20.2812C2.76804 20.459 2.91654 20.6371 3.06469 20.7853C3.42024 21.1112 3.83471 21.3776 4.19027 21.7332C5.07916 22.6221 6.26887 23.4926 7.03924 24.5C7.0985 24.5 7.12813 24.5001 7.18739 24.4705C8.25406 24.026 9.37965 23.7004 10.5352 23.493C10.8315 23.4338 11.1281 23.315 11.1874 22.9595C11.3652 22.041 11.5427 21.1522 11.6909 20.2633C10.8612 19.7596 10.002 19.7297 9.17235 19.7297C9.29087 20.3519 8.99492 20.8556 8.78751 21.3593C8.72825 21.4482 8.55013 21.5074 8.43161 21.537C8.19457 21.5963 7.9279 21.5667 7.69086 21.6557C7.4242 21.7446 7.24653 21.6855 7.06875 21.4485C6.68357 20.9449 6.2985 20.4705 5.85405 20.0261C5.58738 19.7594 5.67639 19.0778 5.67639 19.0186C8.42679 16.2357 8.98442 16.4602 12.3726 15.7003C12.6393 15.9077 12.9353 16.0853 13.1724 16.3224C13.6761 16.7668 14.6246 18.0408 14.7135 18.1297C14.8912 18.3075 15.0731 17.8646 14.9546 18.1017C18.9886 11.8943 19.9291 10.5654 23.1874 6.42593C22.1208 6.42593 21.0245 6.39653 19.9282 6.3669C19.7999 6.38066 19.5565 6.39679 19.4837 6.39641C19.0506 6.34636 18.2347 6.29541 17.9287 5.76255C17.7213 5.46626 15.5132 0.885187 15.2169 0.5Z" fill="black"/>
</g>
<defs>
<clipPath id="clip0_3288_2105">
<rect width="24" height="24" fill="white" transform="translate(0 0.5)"/>
</clipPath>
</defs>
</svg>
